;FLAVOR:RepRap
;TIME:3049
;Filament used: 3.2628m
;Layer height: 0.2
;Generated with Cura_SteamEngine 2.6.2
M104 S200
M109 S200
G28 ;Home
;LAYER_COUNT:15
;LAYER:0
M107
G0 F1800 X38.078 Y65.647 Z0.3
;TYPE:SKIRT
G1 X38.546 Y65.457 E0.0252
G1 X39.039 Y65.344 E0.05043
G1 X39.509 Y65.309 E0.07395
G1 X130.491 Y65.31 E4.61306
G1 X130.995 Y65.35 E4.63828
G1 X131.486 Y65.469 E4.66349
G1 X131.953 Y65.663 E4.68871
G1 X132.383 Y65.929 E4.71394
G1 X132.766 Y66.259 E4.73916
G1 X133.092 Y66.646 E4.76441
G1 X133.353 Y67.079 E4.78963
G1 X133.543 Y67.547 E4.81483
G1 X133.656 Y68.04 E4.84006
G1 X133.691 Y68.51 E4.86358
G1 X133.691 Y111.491 E7.00791
G1 X133.651 Y111.995 E7.03313
G1 X133.532 Y112.486 E7.05834
G1 X133.338 Y112.953 E7.08357
G1 X133.072 Y113.383 E7.10879
G1 X132.742 Y113.766 E7.13401
G1 X132.355 Y114.092 E7.15926
G1 X131.922 Y114.353 E7.18448
G1 X131.454 Y114.543 E7.20968
G1 X130.961 Y114.656 E7.23492
G1 X130.491 Y114.691 E7.25843
G1 X39.509 Y114.691 E11.79754
G1 X39.005 Y114.651 E11.82276
G1 X38.514 Y114.532 E11.84797
G1 X38.047 Y114.338 E11.8732
G1 X37.617 Y114.072 E11.89842
G1 X37.234 Y113.742 E11.92365
G1 X36.908 Y113.355 E11.94889
G1 X36.647 Y112.922 E11.97411
G1 X36.457 Y112.454 E11.99931
G1 X36.344 Y111.961 E12.02455
G1 X36.309 Y111.491 E12.04806
G1 X36.309 Y68.509 E14.19244
G1 X36.349 Y68.005 E14.21767
G1 X36.468 Y67.514 E14.24287
G1 X36.662 Y67.047 E14.2681
G1 X36.928 Y66.617 E14.29333
G1 X37.258 Y66.234 E14.31855
G1 X37.645 Y65.908 E14.34379
G1 X38.078 Y65.647 E14.36902
G1 F1200 E12.36902
G0 F1800 X40.114 Y67.835
G0 X40.114 Y69.114
G0 X40.17 Y69.17
G0 X40.1 Y69.1
;TYPE:WALL-INNER
G1 F1200 E14.36902
G1 F1800 X129.9 Y69.1 E18.84916
G1 X129.9 Y110.9 E20.93457
G1 X40.1 Y110.9 E25.41471
G1 X40.1 Y69.1 E27.50012
G0 X40.17 Y69.17
G0 X42.897 Y71.993
G0 X42.969 Y72.061
G1 X42.8 Y72.264 E27.5133
G1 X42.659 Y72.488 E27.5265
G1 X42.546 Y72.726 E27.53964
G1 X42.465 Y72.977 E27.5528
G1 X42.415 Y73.237 E27.56601
G1 X42.399 Y73.5 E27.57916
G1 X42.415 Y73.763 E27.5923
G1 X42.462 Y74.006 E27.60465
G1 X42.539 Y74.255 E27.61765
G1 X42.651 Y74.496 E27.63091
G1 X42.789 Y74.721 E27.64408
G1 X42.981 Y74.95 E27.65899
G1 X43.175 Y75.13 E27.67219
G1 X43.389 Y75.282 E27.68529
G1 X43.621 Y75.408 E27.69846
G1 X43.867 Y75.503 E27.71162
G1 X44.124 Y75.566 E27.72482
G1 X44.386 Y75.597 E27.73798
G1 X44.648 Y75.595 E27.75105
G1 X44.91 Y75.56 E27.76424
G1 X45.167 Y75.492 E27.7775
G1 X45.411 Y75.392 E27.79066
G1 X45.641 Y75.264 E27.80379
G1 X45.849 Y75.109 E27.81673
G1 X46.03 Y74.94 E27.82909
G1 X46.2 Y74.735 E27.84237
G1 X46.341 Y74.512 E27.85554
G1 X46.454 Y74.274 E27.86868
G1 X46.535 Y74.023 E27.88184
G1 X46.585 Y73.763 E27.89505
G1 X46.601 Y73.5 E27.90819
G1 X46.585 Y73.237 E27.92134
G1 X46.535 Y72.977 E27.93455
G1 X46.454 Y72.726 E27.94771
G1 X46.341 Y72.488 E27.96085
G1 X46.2 Y72.264 E27.97406
G1 X46.031 Y72.061 E27.98723
G1 X45.839 Y71.881 E28.00036
G1 X45.626 Y71.727 E28.01348
G1 X45.397 Y71.6 E28.02654
G1 X45.15 Y71.501 E28.03982
G1 X44.892 Y71.436 E28.05309
G1 X44.632 Y71.403 E28.06617
G1 X44.368 Y71.403 E28.07934
G1 X44.108 Y71.436 E28.09241
G1 X43.85 Y71.501 E28.10569
G1 X43.603 Y71.6 E28.11896
G1 X43.374 Y71.727 E28.13203
G1 X43.161 Y71.881 E28.14514
G1 X42.969 Y72.061 E28.15827
G0 X42.897 Y71.993
G0 X42.509 Y72.712
G0 X42.359 Y73.5
G0 X42.502 Y74.269
G0 X42.757 Y74.744
G0 X43.368 Y75.315
G0 X57.459 Y87.536
G0 X57.522 Y87.612
G1 X57.24 Y87.878 E28.17761
G1 X56.992 Y88.177 E28.19699
G1 X56.782 Y88.506 E28.21646
G1 X56.617 Y88.859 E28.2359
G1 X56.497 Y89.228 E28.25526
G1 X56.423 Y89.612 E28.27477
G1 X56.399 Y90 E28.29417
G1 X56.423 Y90.388 E28.31356
G1 X56.497 Y90.772 E28.33307
G1 X56.617 Y91.141 E28.35243
G1 X56.782 Y91.494 E28.37187
G1 X56.992 Y91.823 E28.39134
G1 X57.24 Y92.122 E28.41072
G1 X57.522 Y92.388 E28.43006
G1 X57.839 Y92.619 E28.44963
G1 X58.18 Y92.805 E28.46901
G1 X58.542 Y92.95 E28.48847
G1 X58.919 Y93.047 E28.50789
G1 X59.306 Y93.095 E28.52734
G1 X59.694 Y93.095 E28.5467
G1 X60.081 Y93.047 E28.56616
G1 X60.458 Y92.95 E28.58558
G1 X60.82 Y92.805 E28.60503
G1 X61.161 Y92.619 E28.62441
G1 X61.478 Y92.388 E28.64398
G1 X61.76 Y92.122 E28.66332
G1 X62.008 Y91.823 E28.6827
G1 X62.218 Y91.494 E28.70217
G1 X62.383 Y91.141 E28.72161
G1 X62.503 Y90.772 E28.74097
G1 X62.577 Y90.388 E28.76048
G1 X62.601 Y90 E28.77988
G1 X62.577 Y89.612 E28.79927
G1 X62.503 Y89.228 E28.81878
G1 X62.383 Y88.859 E28.83814
G1 X62.218 Y88.506 E28.85758
G1 X62.008 Y88.177 E28.87705
G1 X61.76 Y87.878 E28.89643
G1 X61.478 Y87.612 E28.91577
G1 X61.161 Y87.381 E28.93534
G1 X60.82 Y87.195 E28.95472
G1 X60.458 Y87.05 E28.97418
G1 X60.081 Y86.953 E28.9936
G1 X59.694 Y86.905 E29.01305
G1 X59.306 Y86.905 E29.03241
G1 X58.919 Y86.953 E29.05187
G1 X58.542 Y87.05 E29.07129
G1 X58.18 Y87.195 E29.09074
G1 X57.839 Y87.381 E29.11012
G1 X57.522 Y87.612 E29.12969
G0 X57.459 Y87.536
G0 X58.53 Y87.012
G0 X59.304 Y86.866
G0 X60.088 Y86.914
G0 X67.843 Y89.286
G0 X67.942 Y89.298
G1 X67.899 Y90 E29.16478
G1 X67.942 Y90.702 E29.19987
G1 X68.066 Y91.349 E29.23273
G1 X68.276 Y92.016 E29.26762
G1 X68.57 Y92.655 E29.30271
G1 X68.967 Y93.29 E29.34008
G1 X69.417 Y93.834 E29.3753
G1 X69.93 Y94.316 E29.41042
G1 X70.499 Y94.73 E29.44552
G1 X71.115 Y95.068 E29.48058
G1 X71.769 Y95.327 E29.51567
G1 X72.45 Y95.502 E29.55075
G1 X73.148 Y95.59 E29.58585
G1 X73.852 Y95.59 E29.62097
G1 X74.55 Y95.502 E29.65607
G1 X75.231 Y95.327 E29.69115
G1 X75.885 Y95.068 E29.72624
G1 X76.501 Y94.73 E29.7613
G1 X77.07 Y94.316 E29.7964
G1 X77.583 Y93.834 E29.83152
G1 X78.031 Y93.293 E29.86657
G1 X78.409 Y92.699 E29.90169
G1 X78.708 Y92.062 E29.9368
G1 X78.925 Y91.393 E29.97189
G1 X79.058 Y90.702 E30.007
G1 X79.101 Y90 E30.04208
G1 X79.058 Y89.298 E30.07717
G1 X78.925 Y88.607 E30.11228
G1 X78.708 Y87.938 E30.14737
G1 X78.409 Y87.301 E30.18247
G1 X78.031 Y86.707 E30.2176
G1 X77.583 Y86.166 E30.25264
G1 X77.07 Y85.684 E30.28776
G1 X76.501 Y85.27 E30.32287
G1 X75.885 Y84.932 E30.35792
G1 X75.231 Y84.673 E30.39302
G1 X74.55 Y84.498 E30.4281
G1 X73.852 Y84.41 E30.4632
G1 X73.148 Y84.41 E30.49832
G1 X72.45 Y84.498 E30.53342
G1 X71.769 Y84.673 E30.5685
G1 X71.115 Y84.932 E30.60359
G1 X70.499 Y85.27 E30.63865
G1 X69.93 Y85.684 E30.67375
G1 X69.417 Y86.166 E30.70887
G1 X68.969 Y86.707 E30.74391
G1 X68.591 Y87.301 E30.77904
G1 X68.292 Y87.938 E30.81415
G1 X68.075 Y88.607 E30.84924
G1 X67.942 Y89.298 E30.88434
G0 X67.843 Y89.286
G0 X68.255 Y87.924
G0 X68.556 Y87.282
G0 X68.937 Y86.684
G0 X69.388 Y86.139
G0 X69.905 Y85.654
G0 X70.478 Y85.237
G0 X71.098 Y84.896
G0 X71.757 Y84.635
G0 X72.443 Y84.459
G0 X73.146 Y84.371
G0 X73.854 Y84.371
G0 X74.557 Y84.459
G0 X75.243 Y84.635
G0 X75.902 Y84.896
G0 X84.299 Y90
G0 X84.399 Y90
G1 X84.423 Y90.388 E30.90374
G1 X84.496 Y90.772 E30.92324
G1 X84.617 Y91.141 E30.94261
G1 X84.782 Y91.494 E30.96205
G1 X84.992 Y91.823 E30.98152
G1 X85.24 Y92.122 E31.0009
G1 X85.522 Y92.388 E31.02025
G1 X85.839 Y92.619 E31.03981
G1 X86.18 Y92.805 E31.05919
G1 X86.542 Y92.95 E31.07865
G1 X86.92 Y93.047 E31.09812
G1 X87.306 Y93.095 E31.11752
G1 X87.694 Y93.095 E31.13688
G1 X88.08 Y93.047 E31.15629
G1 X88.458 Y92.95 E31.17576
G1 X88.82 Y92.805 E31.19521
G1 X89.161 Y92.619 E31.21459
G1 X89.478 Y92.388 E31.23416
G1 X89.76 Y92.122 E31.2535
G1 X90.008 Y91.823 E31.27288
G1 X90.218 Y91.494 E31.29235
G1 X90.383 Y91.141 E31.31179
G1 X90.504 Y90.772 E31.33117
G1 X90.577 Y90.388 E31.35067
G1 X90.601 Y90 E31.37006
G1 X90.577 Y89.612 E31.38946
G1 X90.504 Y89.228 E31.40896
G1 X90.383 Y88.859 E31.42833
G1 X90.218 Y88.506 E31.44777
G1 X90.008 Y88.177 E31.46724
G1 X89.76 Y87.878 E31.48662
G1 X89.478 Y87.612 E31.50597
G1 X89.161 Y87.381 E31.52553
G1 X88.82 Y87.195 E31.54491
G1 X88.458 Y87.05 E31.56437
G1 X88.08 Y86.953 E31.58384
G1 X87.694 Y86.905 E31.60324
G1 X87.306 Y86.905 E31.6226
G1 X86.92 Y86.953 E31.64201
G1 X86.542 Y87.05 E31.66148
G1 X86.18 Y87.195 E31.68093
G1 X85.839 Y87.381 E31.70031
G1 X85.522 Y87.612 E31.71988
G1 X85.24 Y87.878 E31.73922
G1 X84.992 Y88.177 E31.7586
G1 X84.782 Y88.506 E31.77807
G1 X84.617 Y88.859 E31.79751
G1 X84.496 Y89.228 E31.81689
G1 X84.423 Y89.612 E31.83639
G1 X84.399 Y90 E31.85578
G0 X84.299 Y90
G0 X84.58 Y88.845
G0 X84.96 Y88.154
G0 X85.497 Y87.582
G0 X86.163 Y87.159
G0 X123.446 Y74.29
G0 X123.539 Y74.255
G1 X123.651 Y74.496 E31.86904
G1 X123.789 Y74.721 E31.88221
G1 X123.981 Y74.95 E31.89712
G1 X124.175 Y75.13 E31.91032
G1 X124.389 Y75.282 E31.92342
G1 X124.621 Y75.408 E31.93659
G1 X124.867 Y75.503 E31.94974
G1 X125.124 Y75.566 E31.96295
G1 X125.386 Y75.597 E31.97611
G1 X125.648 Y75.595 E31.98918
G1 X125.91 Y75.56 E32.00237
G1 X126.167 Y75.492 E32.01563
G1 X126.411 Y75.392 E32.02879
G1 X126.641 Y75.264 E32.04192
G1 X126.849 Y75.109 E32.05486
G1 X127.03 Y74.94 E32.06721
G1 X127.2 Y74.735 E32.0805
G1 X127.341 Y74.512 E32.09366
G1 X127.454 Y74.274 E32.10681
G1 X127.535 Y74.023 E32.11997
G1 X127.585 Y73.763 E32.13318
G1 X127.601 Y73.5 E32.14632
G1 X127.585 Y73.237 E32.15947
G1 X127.535 Y72.977 E32.17268
G1 X127.454 Y72.726 E32.18583
G1 X127.341 Y72.488 E32.19898
G1 X127.2 Y72.264 E32.21218
G1 X127.031 Y72.061 E32.22536
G1 X126.839 Y71.881 E32.23849
G1 X126.626 Y71.727 E32.2516
G1 X126.397 Y71.6 E32.26467
G1 X126.15 Y71.501 E32.27794
G1 X125.892 Y71.436 E32.29122
G1 X125.632 Y71.403 E32.30429
G1 X125.368 Y71.403 E32.31747
G1 X125.108 Y71.436 E32.33054
G1 X124.85 Y71.501 E32.34381
G1 X124.603 Y71.6 E32.35709
G1 X124.374 Y71.727 E32.37015
G1 X124.161 Y71.881 E32.38327
G1 X123.969 Y72.061 E32.3964
G1 X123.8 Y72.264 E32.40958
G1 X123.659 Y72.488 E32.42278
G1 X123.546 Y72.726 E32.43593
G1 X123.465 Y72.977 E32.44908
G1 X123.415 Y73.237 E32.46229
G1 X123.399 Y73.5 E32.47544
G1 X123.415 Y73.763 E32.48858
G1 X123.462 Y74.006 E32.50093
G1 X123.539 Y74.255 E32.51393
G0 X123.446 Y74.29
G0 X125.362 Y104.304
G0 X125.368 Y104.403
G1 X125.108 Y104.436 E32.52701
G1 X124.85 Y104.501 E32.54028
G1 X124.603 Y104.6 E32.55356
G1 X124.374 Y104.727 E32.56662
G1 X124.161 Y104.881 E32.57974
G1 X123.969 Y105.061 E32.59287
G1 X123.8 Y105.264 E32.60605
G1 X123.659 Y105.488 E32.61925
G1 X123.546 Y105.726 E32.63239
G1 X123.465 Y105.977 E32.64555
G1 X123.415 Y106.237 E32.65876
G1 X123.399 Y106.5 E32.67191
G1 X123.415 Y106.763 E32.68505
G1 X123.462 Y107.006 E32.6974
G1 X123.539 Y107.255 E32.7104
G1 X123.651 Y107.496 E32.72366
G1 X123.789 Y107.721 E32.73683
G1 X123.981 Y107.95 E32.75174
G1 X124.175 Y108.13 E32.76494
G1 X124.389 Y108.282 E32.77804
G1 X124.621 Y108.408 E32.79121
G1 X124.867 Y108.503 E32.80437
G1 X125.124 Y108.566 E32.81757
G1 X125.386 Y108.597 E32.83073
G1 X125.648 Y108.595 E32.8438
G1 X125.91 Y108.56 E32.85699
G1 X126.167 Y108.492 E32.87025
G1 X126.411 Y108.392 E32.88341
G1 X126.641 Y108.264 E32.89654
G1 X126.849 Y108.109 E32.90948
G1 X127.03 Y107.94 E32.92184
G1 X127.2 Y107.735 E32.93512
G1 X127.341 Y107.512 E32.94829
G1 X127.454 Y107.274 E32.96143
G1 X127.535 Y107.023 E32.97459
G1 X127.585 Y106.763 E32.9878
G1 X127.601 Y106.5 E33.00094
G1 X127.585 Y106.237 E33.01409
G1 X127.535 Y105.977 E33.0273
G1 X127.454 Y105.726 E33.04046
G1 X127.341 Y105.488 E33.0536
G1 X127.2 Y105.264 E33.0668
G1 X127.031 Y105.061 E33.07998
G1 X126.839 Y104.881 E33.09311
G1 X126.626 Y104.727 E33.10623
G1 X126.397 Y104.6 E33.11929
G1 X126.15 Y104.501 E33.13257
G1 X125.892 Y104.436 E33.14584
G1 X125.632 Y104.403 E33.15892
G1 X125.368 Y104.403 E33.17209
G0 X125.362 Y104.304
G0 X46.701 Y106.5
G0 X46.601 Y106.5
G1 X46.585 Y106.237 E33.18523
G1 X46.535 Y105.977 E33.19844
G1 X46.454 Y105.726 E33.2116
G1 X46.341 Y105.488 E33.22474
G1 X46.2 Y105.264 E33.23795
G1 X46.031 Y105.061 E33.25113
G1 X45.839 Y104.881 E33.26426
G1 X45.626 Y104.727 E33.27737
G1 X45.397 Y104.6 E33.29043
G1 X45.15 Y104.501 E33.30371
G1 X44.892 Y104.436 E33.31698
G1 X44.632 Y104.403 E33.33006
G1 X44.368 Y104.403 E33.34323
G1 X44.108 Y104.436 E33.35631
G1 X43.85 Y104.501 E33.36958
G1 X43.603 Y104.6 E33.38286
G1 X43.374 Y104.727 E33.39592
G1 X43.161 Y104.881 E33.40903
G1 X42.969 Y105.061 E33.42216
G1 X42.8 Y105.264 E33.43534
G1 X42.659 Y105.488 E33.44855
G1 X42.546 Y105.726 E33.46169
G1 X42.465 Y105.977 E33.47485
G1 X42.415 Y106.237 E33.48806
G1 X42.399 Y106.5 E33.5012
G1 X42.415 Y106.763 E33.51435
G1 X42.462 Y107.006 E33.5267
G1 X42.539 Y107.255 E33.5397
G1 X42.651 Y107.496 E33.55296
G1 X42.789 Y107.721 E33.56613
G1 X42.981 Y107.95 E33.58104
G1 X43.175 Y108.13 E33.59424
G1 X43.389 Y108.282 E33.60733
G1 X43.621 Y108.408 E33.62051
G1 X43.867 Y108.503 E33.63366
G1 X44.124 Y108.566 E33.64686
G1 X44.386 Y108.597 E33.66003
G1 X44.648 Y108.595 E33.6731
G1 X44.91 Y108.56 E33.68629
G1 X45.167 Y108.492 E33.69955
G1 X45.411 Y108.392 E33.7127
G1 X45.641 Y108.264 E33.72584
G1 X45.849 Y108.109 E33.73878
G1 X46.03 Y107.94 E33.75113
G1 X46.2 Y107.735 E33.76442
G1 X46.341 Y107.512 E33.77758
G1 X46.454 Y107.274 E33.79073
G1 X46.535 Y107.023 E33.80388
G1 X46.585 Y106.763 E33.81709
G1 X46.601 Y106.5 E33.83024
G0 X46.2 Y106.5
;TYPE:WALL-OUTER
G1 X46.187 Y106.287 E33.84089
G1 X46.147 Y106.077 E33.85155
G1 X46.081 Y105.874 E33.8622
G1 X45.99 Y105.681 E33.87285
G1 X45.876 Y105.5 E33.88352
G1 X45.739 Y105.336 E33.89418
G1 X45.584 Y105.19 E33.9048
G1 X45.411 Y105.065 E33.91545
G1 X45.225 Y104.962 E33.92606
G1 X45.026 Y104.882 E33.93676
G1 X44.818 Y104.83 E33.94745
G1 X44.607 Y104.803 E33.95807
G1 X44.393 Y104.803 E33.96874
G1 X44.182 Y104.83 E33.97936
G1 X43.974 Y104.882 E33.99005
G1 X43.775 Y104.962 E34.00075
G1 X43.589 Y105.065 E34.01136
G1 X43.416 Y105.19 E34.02201
G1 X43.261 Y105.336 E34.03263
G1 X43.124 Y105.5 E34.04329
G1 X43.01 Y105.681 E34.05397
G1 X42.919 Y105.874 E34.06461
G1 X42.853 Y106.077 E34.07526
G1 X42.813 Y106.287 E34.08593
G1 X42.8 Y106.5 E34.09657
G1 X42.813 Y106.713 E34.10722
G1 X42.851 Y106.909 E34.11718
G1 X42.913 Y107.111 E34.12772
G1 X43.004 Y107.306 E34.13846
G1 X43.115 Y107.487 E34.14905
G1 X43.271 Y107.674 E34.1612
G1 X43.428 Y107.819 E34.17186
G1 X43.601 Y107.942 E34.18245
G1 X43.789 Y108.044 E34.19312
G1 X43.988 Y108.121 E34.20377
G1 X44.195 Y108.172 E34.2144
G1 X44.408 Y108.197 E34.2251
G1 X44.62 Y108.195 E34.23568
G1 X44.832 Y108.167 E34.24635
G1 X45.039 Y108.112 E34.25704
G1 X45.237 Y108.031 E34.26771
G1 X45.423 Y107.927 E34.27834
G1 X45.593 Y107.801 E34.2889
G1 X45.739 Y107.665 E34.29885
G1 X45.876 Y107.5 E34.30955
G1 X45.99 Y107.319 E34.32022
G1 X46.081 Y107.126 E34.33087
G1 X46.147 Y106.923 E34.34152
G1 X46.187 Y106.713 E34.35218
G1 X46.2 Y106.5 E34.36283
G0 X46.188 Y106.3
G0 X46.688 Y106.269
G0 X46.491 Y107.288
G0 X46.059 Y107.967
G0 X45.428 Y108.428
G0 X40.17 Y110.83
G0 X39.7 Y111.3
G1 X39.7 Y68.7 E36.48815
G1 X130.3 Y68.7 E41.0082
G1 X130.3 Y111.3 E43.13353
G1 X39.7 Y111.3 E47.65358
G0 X39.7 Y111.1
G0 X40.17 Y110.83
G0 X42.768 Y105.241
G0 X43.353 Y104.694
G0 X57.484 Y92.482
G0 X57.778 Y92.08
G1 X58.053 Y92.28 E47.67054
G1 X58.351 Y92.443 E47.68749
G1 X58.666 Y92.569 E47.70442
G1 X58.994 Y92.653 E47.72131
G1 X59.331 Y92.695 E47.73825
G1 X59.669 Y92.695 E47.75511
G1 X60.006 Y92.653 E47.77206
G1 X60.334 Y92.569 E47.78895
G1 X60.649 Y92.443 E47.80588
G1 X60.947 Y92.28 E47.82282
G1 X61.222 Y92.08 E47.83979
G1 X61.468 Y91.848 E47.85666
G1 X61.684 Y91.587 E47.87356
G1 X61.867 Y91.301 E47.8905
G1 X62.01 Y90.994 E47.90739
G1 X62.115 Y90.672 E47.92429
G1 X62.179 Y90.338 E47.94126
G1 X62.2 Y90 E47.95815
G1 X62.179 Y89.662 E47.97505
G1 X62.115 Y89.328 E47.99201
G1 X62.01 Y89.006 E48.00891
G1 X61.867 Y88.699 E48.02581
G1 X61.684 Y88.413 E48.04275
G1 X61.468 Y88.152 E48.05965
G1 X61.222 Y87.92 E48.07652
G1 X60.947 Y87.72 E48.09348
G1 X60.649 Y87.557 E48.11043
G1 X60.334 Y87.431 E48.12736
G1 X60.006 Y87.347 E48.14425
G1 X59.669 Y87.305 E48.16119
G1 X59.331 Y87.305 E48.17805
G1 X58.994 Y87.347 E48.195
G1 X58.666 Y87.431 E48.21189
G1 X58.351 Y87.557 E48.22882
G1 X58.053 Y87.72 E48.24576
G1 X57.778 Y87.92 E48.26273
G1 X57.532 Y88.152 E48.2796
G1 X57.316 Y88.413 E48.2965
G1 X57.133 Y88.699 E48.31344
G1 X56.99 Y89.006 E48.33033
G1 X56.885 Y89.328 E48.34723
G1 X56.821 Y89.662 E48.3642
G1 X56.8 Y90 E48.38109
G1 X56.821 Y90.338 E48.39799
G1 X56.885 Y90.672 E48.41496
G1 X56.99 Y90.994 E48.43185
G1 X57.133 Y91.301 E48.44875
G1 X57.316 Y91.587 E48.46569
